X:1
T: Sarah Anne Cheyne
C:
R:Jig
Q:180
K:A
M:6/8
L:1/16
|:(3efg|a4f2 e4c2|d2c2B2 A4A2|c2d2^d2 e4a2|f6e6|
b4=g2 f4d2|f2e2d2 c4c2|B2^d2f2 b4a2|g6 e4:|
|:fg|a2b2a2 g2f2e2|f4c2 e4e2|f2g2a2 b4a2|g4e2 d2c2B2|
c4e2 a4g2|d4f2 b4a2|g2a2g2 g2a2b2|a6A4:|
